X: 1
T: Billy Rush's
M: 6/8
L: 1/8
R: jig
K: Cmaj
G2G GEG |ABc dcd | ede fed | edc dcA |
G2G GEG | ABc dcd | ede fed | edB c3 :|
gee cde | fed edc | d2d dcd | egg fed |
ege cde | fed edc | d2d dcd | edB c3 :|
